X: 20787
T: Johnny Mac's
R: jig
M: 6/8
K: Amajor
|:ECE A3|AcB ~A2E|FAF ECE|AEE E3|
ECE ~A2G|AcB Acd|ecA dBG|1 BAG AGF:|2 BAG Acd||
|:ecA Ace|aec ~d2f|ecA ecA|agf e2d|
ecA Ace|aec d2f|ece aec|1 BAG Acd:|2 BAG AGF||

